src/topics/icons/flickr-icon.svg

<svg height="256" viewBox="0 0 256 256" width="256" xmlns="http://www.w3.org/2000/svg" xmlns:xlink="http://www.w3.org/1999/xlink"><linearGradient id="a" x1="50%" x2="50%" y1="0%" y2="100%"><stop offset="0" stop-color="#fff"/><stop offset="1" stop-color="#f3f3f3"/></linearGradient><linearGradient id="b" x1="50%" x2="50%" y1="3.29839%" y2="100%"><stop offset="0" stop-color="#dcdcdc"/><stop offset="1" stop-color="#d2d2d2"/></linearGradient><filter id="c" height="200%" width="200%" x="-50%" y="-50%"><feOffset dx="0" dy="1" in="SourceAlpha" result="shadowOffsetInner1"/><feGaussianBlur in="shadowOffsetInner1" result="shadowBlurInner1" stdDeviation="1.5"/><feComposite in="shadowBlurInner1" in2="SourceAlpha" k2="-1" k3="1" operator="arithmetic" result="shadowInnerInner1"/><feColorMatrix in="shadowInnerInner1" result="shadowMatrixInner1" type="matrix" values="0 0 0 0 0   0 0 0 0 0   0 0 0 0 0  0 0 0 0.248847939 0"/><feMerge><feMergeNode in="SourceGraphic"/><feMergeNode in="shadowMatrixInner1"/></feMerge></filter><filter id="d" height="200%" width="200%" x="-50%" y="-50%"><feOffset dx="0" dy="1" in="SourceAlpha" result="shadowOffsetInner1"/><feGaussianBlur in="shadowOffsetInner1" result="shadowBlurInner1" stdDeviation="1.5"/><feComposite in="shadowBlurInner1" in2="SourceAlpha" k2="-1" k3="1" operator="arithmetic" result="shadowInnerInner1"/><feColorMatrix in="shadowInnerInner1" result="shadowMatrixInner1" type="matrix" values="0 0 0 0 0   0 0 0 0 0   0 0 0 0 0  0 0 0 0.248847939 0"/><feMerge><feMergeNode in="SourceGraphic"/><feMergeNode in="shadowMatrixInner1"/></feMerge></filter><g fill="none" fill-rule="evenodd"><rect fill="url(#a)" height="247.434627" rx="28" width="247.434627" x="4.464247" y="4.464247"/><path d="m46.7031149 8.01718949c-21.4037788 0-38.8185285 17.41474971-38.8185285 38.81852851v162.311647c0 21.403778 17.4147497 38.818529 38.8185285 38.818529h162.3102801c21.405145 0 38.818528-17.414751 38.818528-38.818529v-162.311647c0-21.4037788-17.413383-38.81852851-38.818528-38.81852851zm162.3102801 247.60277251h-162.3102801c-25.6252048 0-46.47259742-20.848759-46.47259742-46.472597v-162.311647c0-25.6252048 20.84739262-46.47533152 46.47259742-46.47533152h162.3102801c25.626571 0 46.473964 20.85012672 46.473964 46.47533152v162.311647c0 25.623838-20.847393 46.472597-46.473964 46.472597z" fill="url(#b)"/><path d="m116.254118 127.990175c0 19.448908-15.763363 35.210903-35.2095376 35.210903-19.4461744 0-35.2095373-15.761995-35.2095373-35.210903 0-19.444808 15.7633629-35.2109049 35.2095373-35.2109049 19.4461746 0 35.2095376 15.7660969 35.2095376 35.2109049" fill="#1d66d8" filter="url(#c)"/><path d="m209.8842 127.990175c0 19.448908-15.76473 35.210903-35.210903 35.210903-19.447542 0-35.210905-15.761995-35.210905-35.210903 0-19.444808 15.763363-35.2109049 35.210905-35.2109049 19.446173 0 35.210903 15.7660969 35.210903 35.2109049" fill="#fb0a84" filter="url(#d)"/></g></svg>

<?xml version="1.0" encoding="UTF-8" standalone="no"?>
<svg width="256px" height="256px" viewBox="0 0 256 256" version="1.1" xmlns="http://www.w3.org/2000/svg" xmlns:xlink="http://www.w3.org/1999/xlink">
    <defs>
        <linearGradient x1="50%" y1="0%" x2="50%" y2="100%" id="linearGradient-1">
            <stop stop-color="#FFFFFF" offset="0%"></stop>
            <stop stop-color="#F3F3F3" offset="100%"></stop>
        </linearGradient>
        <linearGradient x1="50%" y1="3.29838967%" x2="50%" y2="100%" id="linearGradient-2">
            <stop stop-color="#DCDCDC" offset="0%"></stop>
            <stop stop-color="#D2D2D2" offset="100%"></stop>
        </linearGradient>
        <filter x="-50%" y="-50%" width="200%" height="200%" filterUnits="objectBoundingBox" id="filter-3">
            <feOffset dx="0" dy="1" in="SourceAlpha" result="shadowOffsetInner1"></feOffset>
            <feGaussianBlur stdDeviation="1.5" in="shadowOffsetInner1" result="shadowBlurInner1"></feGaussianBlur>
            <feComposite in="shadowBlurInner1" in2="SourceAlpha" operator="arithmetic" k2="-1" k3="1" result="shadowInnerInner1"></feComposite>
            <feColorMatrix values="0 0 0 0 0   0 0 0 0 0   0 0 0 0 0  0 0 0 0.248847939 0" in="shadowInnerInner1" type="matrix" result="shadowMatrixInner1"></feColorMatrix>
            <feMerge>
                <feMergeNode in="SourceGraphic"></feMergeNode>
                <feMergeNode in="shadowMatrixInner1"></feMergeNode>
            </feMerge>
        </filter>
        <filter x="-50%" y="-50%" width="200%" height="200%" filterUnits="objectBoundingBox" id="filter-4">
            <feOffset dx="0" dy="1" in="SourceAlpha" result="shadowOffsetInner1"></feOffset>
            <feGaussianBlur stdDeviation="1.5" in="shadowOffsetInner1" result="shadowBlurInner1"></feGaussianBlur>
            <feComposite in="shadowBlurInner1" in2="SourceAlpha" operator="arithmetic" k2="-1" k3="1" result="shadowInnerInner1"></feComposite>
            <feColorMatrix values="0 0 0 0 0   0 0 0 0 0   0 0 0 0 0  0 0 0 0.248847939 0" in="shadowInnerInner1" type="matrix" result="shadowMatrixInner1"></feColorMatrix>
            <feMerge>
                <feMergeNode in="SourceGraphic"></feMergeNode>
                <feMergeNode in="shadowMatrixInner1"></feMergeNode>
            </feMerge>
        </filter>
    </defs>
    <g stroke="none" stroke-width="1" fill="none" fill-rule="evenodd">
        <g>
            <rect fill="url(#linearGradient-1)" x="4.46424697" y="4.46424697" width="247.434627" height="247.434627" rx="28"></rect>
            <path d="M46.7031149,8.01718949 C25.2993361,8.01718949 7.8845864,25.4319392 7.8845864,46.835718 L7.8845864,209.147365 C7.8845864,230.551143 25.2993361,247.965894 46.7031149,247.965894 L209.013395,247.965894 C230.41854,247.965894 247.831923,230.551143 247.831923,209.147365 L247.831923,46.835718 C247.831923,25.4319392 230.41854,8.01718949 209.013395,8.01718949 L46.7031149,8.01718949 L46.7031149,8.01718949 Z M209.013395,255.619962 L46.7031149,255.619962 C21.0779101,255.619962 0.23051748,234.771203 0.23051748,209.147365 L0.23051748,46.835718 C0.23051748,21.2105132 21.0779101,0.360386483 46.7031149,0.360386483 L209.013395,0.360386483 C234.639966,0.360386483 255.487359,21.2105132 255.487359,46.835718 L255.487359,209.147365 C255.487359,234.771203 234.639966,255.619962 209.013395,255.619962 L209.013395,255.619962 L209.013395,255.619962 Z" fill="url(#linearGradient-2)"></path>
            <path d="M116.254118,127.990175 C116.254118,147.439083 100.490755,163.201078 81.0445804,163.201078 C61.598406,163.201078 45.8350431,147.439083 45.8350431,127.990175 C45.8350431,108.545367 61.598406,92.7792701 81.0445804,92.7792701 C100.490755,92.7792701 116.254118,108.545367 116.254118,127.990175" fill="#1D66D8" filter="url(#filter-3)"></path>
            <path d="M209.8842,127.990175 C209.8842,147.439083 194.11947,163.201078 174.673297,163.201078 C155.225755,163.201078 139.462392,147.439083 139.462392,127.990175 C139.462392,108.545367 155.225755,92.7792701 174.673297,92.7792701 C194.11947,92.7792701 209.8842,108.545367 209.8842,127.990175" fill="#FB0A84" filter="url(#filter-4)"></path>
        </g>
    </g>
</svg>
